X: 18537
T: I Have A Bonnet Trimmed With Blue
R: polka
M: 2/4
K: Dmajor
|:"D"DE/F/ GB|AD FD|"A"AB/A/ GE|"D"ED F/G/A|
"D"DE/F/ GB|AD FD|"A"AB/A/ GE|"D"ED D2:|
|:"A"AB/c/ "G"dc/B/|"D"AD FD|"A"AB/A/ GE|"D"ED F/G/F/E/|
"A"AB/c/ "G"dB|"D"AD FD|"A"AB/A/ GE|"D"ED D2:|

